!!!OTL: HEUT NOCH SIND WIR HIER ZU HAUS
!!!ARE: Europa, Mitteleuropa, Deutschland
!!!SCT: E1627
!!!YEM: Copyright 1995, estate of Helmut Schaffrath.
**kern
*ICvox
*Ivox
*M4/4
*k[f#]
*G:
=1
{4.d
8g
4g
4g
=2
4g
8f#
8f#
4a
4r}
=3
{4.d
8a
4a
4a
=4
4a
8g
8a
4b
4r}
=5
{4.g
8b
4b
4dd
=6
2dd
4b
4r
=7
2dd
4b
4r}
=8
{4.ee
8dd
4dd
4cc
=9
2cc
4b
4r}
=10
{4.g
8b
4b
4dd
=11
2dd
4b
4r
=12
2dd
4b
4r}
=13
{4.ee
8dd
4dd
4cc
=14
2cc
4b
4r}
==
!!!AGN: Staende -, Handwerker -, Gesellen - Lied; Wanderschaft
!!!ONB: ESAC (Essen Associative Code) Database: ERK3
!!!AMT: simple quadruple
!!!AIN: vox
!!!EED: Helmut Schaffrath
!!!EEV: 1.0
*-
